components/icon/svg/24/action_star.svg

<?xml version="1.0" encoding="UTF-8"?>
<svg width="24px" height="24px" viewBox="0 0 24 24" version="1.1" xmlns="http://www.w3.org/2000/svg" xmlns:xlink="http://www.w3.org/1999/xlink">
    <!-- Generator: Sketch 64 (93537) - https://sketch.com -->
    <title>ic-db_action_star_24</title>
    <desc>Created with Sketch.</desc>
    <g id="Symbols:Icon" stroke="none" stroke-width="1" fill="none" fill-rule="evenodd">
        <g id="24dp-Icon/Action/Star" fill="#282D37">
            <path d="M12,2 C12.375,2 12.7188,2.2187 12.9062,2.5625 L15.4375,7.7187 L21.1562,8.5625 C21.5625,8.625 22,8.9375 22,9.5 C22,9.7813 21.9062,10.0625 21.7188,10.25 L17.5938,14.2813 L18.5625,19.9687 C18.6875,20.5937 18.1562,21.125 17.5625,21.125 C17.4062,21.125 17.25,21.0937 17.0938,21 L12,18.3437 L6.9062,21 C6.75,21.0937 6.5938,21.125 6.4375,21.125 C5.8125,21.125 5.3125,20.5 5.4375,19.9687 L6.4375,14.2813 L2.2812,10.25 C2.0938,10.0625 2,9.7813 2,9.5 C2,9.0313 2.375,8.625 2.8438,8.5625 L8.5625,7.7187 L11.0938,2.5625 C11.2812,2.25 11.625,2 12,2 Z M12,5.25 L10.125,9.0625 C9.9688,9.375 9.6875,9.5937 9.375,9.625 L5.125,10.25 L8.1875,13.2187 C8.4375,13.4687 8.5312,13.7187 8.4688,14.0937 L7.75,18.3125 L11.5312,16.3125 C11.6875,16.25 11.8438,16.2187 12,16.2187 C12.1562,16.2187 12.3125,16.25 12.4688,16.3125 L16.25,18.3125 L15.5312,14.0937 C15.4688,13.7813 15.5625,13.4375 15.8125,13.2187 L18.875,10.25 L14.6562,9.625 C14.3125,9.5625 14.0312,9.375 13.875,9.0625 L12,5.25 Z" id="🎨-Color"></path>
        </g>
    </g>
</svg>

<svg width="24" height="24" xmlns="http://www.w3.org/2000/svg"><path d="M12 2c.375 0 .719.219.906.563l2.531 5.156 5.72.843c.405.063.843.376.843.938 0 .281-.094.563-.281.75l-4.125 4.031.968 5.688c.125.625-.406 1.156-1 1.156a.882.882 0 01-.468-.125L12 18.344 6.906 21a.882.882 0 01-.468.125c-.625 0-1.125-.625-1-1.156l1-5.688L2.28 10.25C2.094 10.062 2 9.781 2 9.5c0-.469.375-.875.844-.938l5.719-.843 2.53-5.157C11.282 2.25 11.626 2 12 2zm0 3.25l-1.875 3.813c-.156.312-.438.53-.75.562l-4.25.625 3.063 2.969c.25.25.343.5.28.875l-.718 4.219 3.781-2c.156-.063.313-.094.469-.094.156 0 .313.031.469.093l3.781 2-.719-4.218a.925.925 0 01.281-.875l3.063-2.969-4.219-.625c-.344-.063-.625-.25-.781-.563L12 5.25z" fill="#282D37" fill-rule="evenodd"/></svg>
